X: 10482
T: Donnelly's
R: reel
M: 4/4
K: Dmajor
|:E|F2FE FGAB|Ad~d2 Adfd|e3f fedB|BAdf fedB|
BAFE F3B|BAdc defg|afge (3fga ed|cAGE EDD:|
|:c|defd BcdB|cBAc BFFA|dF~F2 cFBF|AFED EFGA|
EF~F2 FGAB|BAdc defg|afge (3fga ed|cAGE EDD:|

